!!key: tele-40-7-Fan-Dol-1-Flute
!!!COM: Telemann, Georg Philipp
!!!CDT: 1681/03/14-1767/06/25
!!!CBL: Magdeburg
!!!CDL: Hamburg
!!!CNT: German
!!!TWV: 40:7
!!!TWV-genre: 40
!!!TWV-work: 7
!!!OPR: 12 Fantasias for transverse flute without bass
!!!OTL: Fantasia 6
!!!OMD: Dolce
!!!OMV: 1
!!!ODT: ca. 1732–1733
!!!AST: Late Baroque
!!!AGN: Fantasia
!!!AMT: Simple triple
!!!AIN: Transverse flute
**kern
*ICww
*Iflt
*clefG2
*k[b-]
*d:
*M3/4
4a
=
8d
(8dd
8cc#X
8dd
8ff)
8dd
=
8b
(8dd
8cc#X
8dd
8ff)
8dd
=
8f
8aa
8g
8gg
16a
16gg
16ff
16ee
=
(32ff
32ee
8.dd)
4r
4a
!!LO:LB:g=original
=
8d
(8dd
8cc#X
8dd
8ff)
8dd
=
8g
(8ff
8ee
8dd)
8ddd
8ff
=
16cc
16dd
16ee
16ff
8gg
(4ff
8ee)
=
8f
(8ee
8dd
8cc)
8ccc
8ee
=
16bn
16cc
16dd
16ee
8ff
(4ee
8dd)
=
8e
(8dd
8cc
8bn)
8bbn
8dd
!!LO:LB:g=original
=
(32cc
32bn
8.a)
(32dd
32cc
8.b)
(32ee
32dd
8.cc)
=
4.aa
16gg
16ff
16ee
16dd
16cc
16bn
=
8a
8d#X
4e
!TODO: trill +
4bn
=
2a
=:||:
4cc
=
8f
(8ff
8ee
8ff
8aa)
8ff
=
8dd
(8ff
8ee
8ff
8aa)
8ff
=
8a
8ccc
8b
8bb
16cc
16bb
16aa
16gg
=
32aa
32gg
8.ff
4r
4g
=
8f#X
4cc
(16ee-
16dd)
(16ee-
16dd)
8cc
=
8aa
4cc
(16ee-
16dd)
(16ee-
16dd)
8cc
=
8gg
8b
8cc
8aa
8dd
8ff#X
=
8g
4ff#X
(16gg
16aa
8bb)
8dd
=
8ee
(8b
8a
8g)
8ccc
8bb
=
8aa
4ee
(16ff
16gg
8aa)
8cc#X
=
8dd
(8a
8g
8f)
8bb
8aa
=
8gg#X
4dd
16dd
32ee
32ff
8ee
8dd
=
(32cc#X
32bn
8.a)
(32ee
32dd
8.cc#)
(32ggn
32ff
8.ee)
=
4.ddd
16cccn
16bb-X
16aa
16gg
16ff
16ee
=
8dd
8g#X
4a
!TODO: trill +
4ee
=
2dd
==:|
*-
!!!RTL1: G. PH. Telemann: Twelve Fantasias for Flute without Bass TWV 40:2-13
!!!RPN1: D'Arcangelo, Rita
!!!RMM1: Da Vinci Classics
!!!RC#1: DV-C00440
!!!RRD1: 2022
!!!RLC1: Andreaskirche, Berlin, Germany
!!!RDT1: 16 September 2020, 17 September 2020
!!!RT#1: 6
!!!RTL2: The Telemann Files: 12 Fantasies for Solo Flute
!!!RPN2: Choi, Jasmine
!!!RMM2: Austrian Gramophone
!!!RC#2: AG0001
!!!RRD2: February 2015
!!!RLC2: LeFrak Hall, Queens, USA
!!!RDT2: 9 June 2014, 10 June 2014
!!!RT#2: 6
!!!RTL3: Georg Philipp Telemann: Twelve Fantasies for Flute
!!!RPN3: Robertello, Thomas
!!!RMM3: Delos
!!!RC#3: DE3396
!!!RRD3: 1 June 2009
!!!RLC3: Clear Creek Recording, Keene, California
!!!RDT3: Unknown
!!!RT#3: 6
